X: 15
T: Abbey, The
Z: leprecawn
S: https://thesession.org/tunes/477#setting51718
R: reel
M: 4/4
L: 1/8
K: Ador
G3A G2FD|G2FG AccA|~G3A GFDE|F2FG AccA|
~G3A G2FD|G2FG AccA|G2cA GFDE|F2FG Acc2||
df~f2 g2ag|fgaf gfdc|df~f2 g2fg|afde fdc2|
df~f2 gf~f2|g2af gfdc|df~f2 g2fg|afdg fdcA||

%-------------------- TUNE SEPARATOR --------------------%

